X:1
T:Keyboard Sonata in G Major
T:Keyboard Sonata in G Major
T:Hob.XVI:G1
T:Franz Joseph Haydn
T:Public Domain.
T:Public Domain.
T:Public Domain.
T:Public Domain.
T:Public Domain.
T:Public Domain.
T:Public Domain.
C:Franz Joseph Haydn
Z:Public Domain.
%%score { ( 1 3 ) | ( 2 4 ) }
L:1/8
Q:1/4=132
M:2/4
K:G
V:1 treble nm="Grand Piano" snm="Pno."
V:3 treble 
V:2 bass 
V:4 bass 
V:1
"^Allegro"!f! (d/4c/4B/4A/4) | x .g .f.e | d3 (3(e/d/c/) | B3 (B/4A/4G/4F/4) | x .e .d.c | %5
 (c2 .B)!p! x | x .e .d.F | .G2 z!f! (d/4c/4B/4A/4) | x .g .f.e | d3 (3d/g/b/ | a3 (g/4f/4e/4d/4) | %11
 x .g2 .f | .f.e z!mf! (A/4G/4F/4E/4) | .D(d/.D/) (^c/.D/)(B/.D/) | %14
 (A/.D/)(G/.D/) .F!f!(A/4G/4F/4E/4) | .D(d/.D/) (^c/.D/)(B/.D/) | (A/.D/)(G/.D/) .F.A | .G.E z .g | %18
 .f.a z .A | .G.E z .g | .f.a z .A | .G.E z .g |!ff! .f (3A/B/^c/ (3d/e/f/ (3e/f/g/ | %23
 .f (3A/B/^c/ (3d/e/f/ (3e/f/g/ | !wedge!f (3a/g/f/ !wedge!b (3g/f/e/ | .d2 Te2 | %26
 !wedge!d!mf! (3a/g/f/ !wedge!b (3g/f/e/ | .d2 Te2 | .d2 z ::!mp! (A/4G/4F/4E/4) | x .d .^c.B | %31
!<(! A3 .B!<)! |!mf! =c3 (3(e/d/c/) | x .g .f.e |!<(! d3 .e!<)! |!f! =f3 (3(a/g/f/) | .e.g z .g | %37
 .=f.d z!mp! .f | .e.g z .g | .=f.d z!f! .f | .e.g z!<(! .e!<)! |!ff! .e.a z!mf! .g | .^f.d z .f | %43
 .e.a z .g | .^f.d z!f! .f | .f.b z .a | .g.e z .g | .f.b z .a | %48
!ff! .g (3B/^c/^d/ (3e/f/g/ (3f/g/a/ | .g (3B/^c/^d/ (3e/f/g/ (3f/g/a/ | %50
 !wedge!g (3b/a/g/ !wedge!=c' (3a/g/f/ | .e2 Tf2 | !wedge!e!mf! (3b/a/g/ !wedge!c' (3a/g/f/ | %53
 .e2 Tf2 | .e2 z2 | z .g .g2 | z .a .a2 | z .f .f2 | z .g .g!f! x | x .g .f.e | d3 (3(e/d/c/) | %61
 B3 (B/4A/4G/4F/4) | x .e .d.c | (c2 .B)!p! x | x .c .c.B | (B2 .A)!mf! x | %66
 .G(g/.G/) (f/.G/)(e/.G/) | (d/.G/)(c/.G/) .B!f!(d/4c/4B/4A/4) | .G(g/.G/) (f/.G/)(e/.G/) | %69
 (d/.G/)(c/.G/) .B.d | .c.A z .c | .B.d z .d | .c.A z .c | .B.d z .d | .c.A z .c | %75
!ff! .B (3D/E/F/ (3G/A/B/ (3A/B/c/ | .B (3D/E/F/ (3G/A/B/ (3A/B/c/ | %77
 !wedge!B (3d/c/B/ !wedge!e (3c/B/A/ | .G2 TA2 | !wedge!G!mf! (3d/c/B/ !wedge!e (3c/B/A/ | %80
 .G2 TA2 | .G2 z2 :|[M:3/4][Q:1/4=116]"^MENUETTO"!mf! d4 (3efg | .d2 (3gba (3gfe | d4 (3efg | %85
 .d2 z2 z2 |!f! z ce.cTBA |!mf! z Bd.BTAG |!f!{B} .A2 .G2 TF2 | G4 z2 ::!f! [FA]4 .[GB]2 | %91
 .[Ac]2 .[FA]2 z2 | [GB]4 .[Ac]2 | .[Bd]2 .[GB]2 z2 |!p! .[FA]2 .[Ac]2 .[GB]2 | .[FA]2 z2 z2 | %96
!mf! d4 (3efg | .d2 (3gba (3gfe | d4 (3efg | .d2 z2 z2 |!f! z ce.cTBA |!mf! z Bd.BTAG | %102
!f!{B} .A2 .G2 TF2 | G4 z2!fine! ::[K:C][Q:1/4=116]"^TRIO"!mf! z2 .c2 .c2 | !turn!c4 .G2 | %106
 A4 (3cBA | .G2 z2 z2 |!f! .!turn!f2 z2 z2 |!mf! .!turn!e2 z2 z2 |!f!{e} .d2 .c2 TB2 | c4 z2 :: %112
!mf! z2 .g2 .g2 | (g4 .^f2) |!f! z2 .=f2 .f2 | (f4 .e2) | z2 (3de.f (3fga | z2 (3de.f (3fga | %118
 z2 (3agf (3ed.c | (c4 .B2) |!mf! z2 .c2 .c2 | !turn!c4 .G2 | A4 (3cBA | .G2 z2 z2 | %124
!f! .!turn!f2 z2 z2 |!mf! .!turn!e2 z2 z2 |!f!{e} .d2 .c2 TB2 | c4 z2!D.C.! :| %128
[K:G][M:3/8][Q:1/4=156]"^FINALE\nPresto"!mf! .G | B/G/B/G/c/G/ | d/G/d/G/e/G/ | G/F/E/D/.[Ac] | %132
 [Ac].[GB]!f!.G | B/G/B/G/c/G/ | d/G/d/G/e/G/ | .d.GTF | .G2 :|!mp! .d | F/d/F/d/G/d/ | %139
 c/B/c/A/.B | F/d/F/d/G/d/ | c/B/c/A/.B |!f! g/f/g/b/.d | e/d/e/g/.d | c/B/c/A/B/G/ | .D2 .G | %146
!mf! B/G/B/G/c/G/ | d/G/d/G/e/G/ | G/F/E/D/.[Ac] | [Ac].[GB]!f!.d | g/d/g/d/c'/d/ | b/d/b/d/f/d/ | %152
!ff! .g.BTA | .G2!fine! |:[K:F] z |!f! .!turn!d z z | .!turn!_e z z | .^f z z | .g z z | .b z z | %160
 .a z z |!ff! g.f.e | .d z :: z |[K:bass]!p! z .^F,.A, | z .G,.D | C2 .B, | %167
 .A, z[K:treble]!ff! .d | c2 .B | .A z[K:bass]!f! .D | C2 .B, | .A, z z |[K:treble] .!turn!g z z | %173
 .!turn!a z z | .b z z | .^f z z | .g z z | ._e z z |!ff! d.B.A | .G z!D.C.! :| %180
V:2
 z | z4 | z .G, .G,,2 | z .G, .G,,2 | .C,2 .D,2 | .G,.D, .G,, z | .C,2 .D,2 | .G,.D, .G,, z | z4 | %9
 z .G, .G,,2 | z .[F,D] .[F,D]2 | z .^C.C.D | .A,2 z2 | z .B,.A,.G, | .F,.E,.D, z | z .B,.A,.G, | %16
 .F,.E,.D, z | ^C,/A,/C,/A,/ C,/A,/C,/A,/ | D,/A,/D,/A,/ D,/A,/D,/A,/ | %19
 ^C,/A,/C,/A,/ C,/A,/C,/A,/ | D,/A,/D,/A,/ D,/A,/D,/A,/ | ^C,/A,/C,/A,/ C,/A,/C,/A,/ | .D,2 z .^C | %23
 .D2 z .^C | .D2 .G,2 | z .F,.G,.A, | .D,2 .G,2 | z .F,.G,.A, | .D,2 z :: z | z4 | z .D, .D,,2 | %32
 z .D, .D,,2 | .G,2 z2 | z .G, .G,,2 | z .G, .G,,2 |[K:treble] C/G/C/G/ C/G/C/G/ | %37
 B,/G/B,/G/ B,/G/B,/G/ | C/G/C/G/ C/G/C/G/ | B,/G/B,/G/ B,/G/B,/G/ | C/G/C/G/ C/G/C/G/ | %41
 ^C/A/C/A/ C/A/C/A/ | D/A/D/A/ D/A/D/A/ | ^C/A/C/A/ C/A/C/A/ | D/A/D/A/ D/A/D/A/ | %45
 ^D/B/D/B/ D/B/D/B/ | E/B/E/B/ E/B/E/B/ | ^D/B/D/B/ D/B/D/B/ | .E2 z .^D | .E2 z .^D | .E2 .A2 | %51
 z .G.A.B | .E2 .A2 | z .G.A.B | .E2[K:bass] z (B,/4A,/4G,/4F,/4) | .E,2 z (C/4B,/4A,/4G,/4) | %56
 .F,2 z (A,/4G,/4F,/4E,/4) | .D,2 z (D/4C/4B,/4A,/4) | .G,2 z2 | z4 | z .G, .G,,2 | z .G, .G,,2 | %62
 .C,2 .D,2 | .G,.D, .G,, z | .C,3 .^C, | .D,2 .D,,2 | z .E.D.C | .B,.A,.G, z | z .E.D.C | %69
 .B,.A,.G, z | F,/D/F,/D/ F,/D/F,/D/ | G,/D/G,/D/ G,/D/G,/D/ | F,/D/F,/D/ F,/D/F,/D/ | %73
 G,/D/G,/D/ G,/D/G,/D/ | F,/D/F,/D/ F,/D/F,/D/ | .G,2 z .F, | .G,2 z .F, | .G,2 .C2 | z .B,.C.D | %79
 .G,2 .C2 | z .B,.C.D | .G,2 z2 :|[M:3/4][K:treble] .[GB]2 .[GB]2 .[Gc]2 | .[GB]2 z2 z2 | %84
 .[GB]2 .[GB]2 .[Gc]2 | .[GB]2 z2 z2 |[K:bass] .[F,D]2 z2 z2 | .[G,D]2 z2 z2 | .C2 .D2 .D,2 | %89
!>(!!>(! .G,2 .D,2 !breath!.G,,2!>)!!>)! :: D,,D, D,,D, D,,D, | D,,D, D,,D, D,,D, | %92
 D,,D, D,,D, D,,D, | D,,D, D,,D, D,,D, | D,,D, D,,D, D,,D, | .D,,2 z2 z2 | %96
[K:treble] .[GB]2 .[GB]2 .[Gc]2 | .[GB]2 z2 z2 | .[GB]2 .[GB]2 .[Gc]2 | .[GB]2 z2 z2 | %100
[K:bass] .[F,D]2 z2 z2 | .[G,D]2 z2 z2 | .C2 .D2 .D,2 |!>(! .G,2 .D,2 !breath!.G,,2!>)! :: %104
[K:C] .[C,,C,]2 z2 z2 |[K:treble] .[CE]2 .[CE]2 .[CE]2 | .[CF]2 .[CF]2 .[CF]2 | .[CE]2 z2 z2 | %108
 z2 .[B,G]2 .[B,G]2 | z2 .[CG]2 .[CG]2 | .F2 .G2[K:bass] .G,2 |!>(! .C2 .G,2 .C,2!>)! :: %112
 .[G,B,]2 z2 z2 | z2 .[A,C]2 .[A,C]2 | .[B,D]2 z2 z2 | z2[K:treble] .[CG]2 .[CG]2 | .F2 z2 z2 | %117
 .F2 z2 z2 | F4 .^F2 |!>(! .G2 .D2 .G,2!>)! |[K:bass] .[C,,C,]2 z2 z2 | %121
[K:treble] .[CE]2 .[CE]2 .[CE]2 | .[CF]2 .[CF]2 .[CF]2 | .[CE]2 z2 z2 | z2 .[B,G]2 .[B,G]2 | %125
 z2 .[CG]2 .[CG]2 | .F2 .G2[K:bass] .G,2 |!>(! .C2 .G,2 .C,2!>)! :|[K:G][M:3/8] z | %129
 .[G,,G,]2 .[A,,A,] | .[B,,B,]2 .[C,C] | .[D,D]2 .F, | .G,.G,, z | .[G,,G,]2 .[A,,A,] | %134
 .[B,,B,]2 .[C,C] | .B,.D.D, | .G,.G,, :| z | .[C,C]2 .[B,,B,] | .[F,,F,]2 .[G,,G,] | %140
 .[C,C]2 .[B,,B,] | .[F,,F,]2 .[G,,G,] | .[B,,B,]2 .[B,,B,] | .[C,C]2 .[B,,B,] | .A,.F,.G, | %145
 .D,.D,, z | .[G,,G,]2 .[A,,A,] | .[B,,B,]2 .[C,C] | .[D,D]2 .F, | .G,.G,, z | .[G,,G,]2 .[F,,F,] | %151
 .[G,,G,]2 .C | .B,.D.D, | .G,.G,, |:[K:F] z |[K:treble] z .B.G | z .c.C | z .d.c | z .B.G | %159
[K:bass] z .=E.E | z .D.D | G,.A,.A,, | .D,.D,, :: z | .[D,,D,]2 z | .[B,,,B,,]2 z | z .^F,,.G,, | %167
 .D,.D,, z | z .[^F,,^F,].[G,,G,] | .D,.D,, z | z .^F,,.G,, | .D,.D,, z |[K:treble] z .B.G | %173
 z .^F.D | z .G.G, | z .A.A, |[K:bass] z .=D.D | z .A,.A, | .B,,.D,.D,, | .G,.G,, :| %180
V:3
 x | .G.e .d.c | B3 x | x4 | .E.c .B.A | (A2 .G)(B/4A/4G/4F/4) | .E.c .B.C | .B,2 x2 | .G.e .d.c | %9
 B3 x | x4 | .^c .e2 .d | .d.^c x2 | x4 | x4 | x4 | x4 | x3 .e | .d.f x2 | x3 .e | .d.f x2 | %21
 x3 .e | .d x3 | x4 | x4 | x2 (6:4:6x/x/x/x/x/x/ | x4 | x2 (6:4:6x/x/x/x/x/x/ | x3 :: x | %30
 .D.B .A.G | F3 .G | A3 x | .B.e .d.c | B3 .c | d3 x | x4 | x4 | x4 | x4 | x4 | x4 | x4 | x4 | x4 | %45
 x4 | x4 | x4 | x4 | x4 | x4 | x2 (6:4:6x/x/x/x/x/x/ | x4 | x2 (6:4:6x/x/x/x/x/x/ | x4 | x .B .B2 | %56
 x .c .c2 | x .A .A2 | x .B .B(d/4c/4B/4A/4) | .G.e .d.c | B3 x | x4 | .E.c .B.A | %63
 (A2 .G)(B/4A/4G/4F/4) | .E.A .A.G | (G2 .F)(d/4c/4B/4A/4) | x4 | x4 | x4 | x4 | x3 .A | .G.B x2 | %72
 x3 .A | .G.B x2 | x3 .A | .G x3 | x4 | x4 | x2 (6:4:6x/x/x/x/x/x/ | x4 | x2 (6:4:6x/x/x/x/x/x/ | %81
 x4 :|[M:3/4] x6 | x6 | x6 | x6 | x6 | x6 | x6 | x6 :: x6 | x6 | x6 | x6 | x6 | x6 | x6 | x6 | x6 | %99
 x6 | x6 | x6 | x6 | x6 ::[K:C] x6 | x6 | x6 | x6 | x6 | x6 | x6 | x6 :: x6 | x6 | x6 | x6 | x6 | %117
 x6 | x6 | x6 | x6 | x6 | x6 | x6 | x6 | x6 | x6 | x6 :|[K:G][M:3/8] x | x3 | x3 | x3 | x3 | x3 | %134
 x3 | x2 (3x/x/x/ | x2 :| x | x3 | x3 | x3 | x3 | x3 | x3 | x3 | x3 | x3 | x3 | x3 | x3 | x3 | x3 | %152
 x2 (3x/x/x/ | x2 |:[K:F] x | (3x/x/x/ x2 | (3x/x/x/ x2 | x3 | x3 | .^c x2 | .d x2 | e.d.^c | %162
 .d x :: x |[K:bass] x3 | x3 | A,2 .G, | .^F, x[K:treble] .B | A2 .G | .^F2[K:bass] .B, | A,2 .G, | %171
 .^F, x2 |[K:treble] (3x/x/x/ x2 | (3x/x/x/ x2 | x3 | x3 | .B x2 | .^F x2 | x .G.^F | .G z :| %180
V:4
 x | x4 | x4 | x4 | x4 | x4 | x4 | x4 | x4 | x4 | x4 | x4 | x4 | x4 | x4 | x4 | x4 | x4 | x4 | x4 | %20
 x4 | x4 | x4 | x4 | x4 | x4 | x4 | x4 | x3 :: x | x4 | x4 | x4 | x4 | x4 | x4 |[K:treble] x4 | %37
 x4 | x4 | x4 | x4 | x4 | x4 | x4 | x4 | x4 | x4 | x4 | x4 | x4 | x4 | x4 | x4 | x4 | %54
 x2[K:bass] x2 | x4 | x4 | x4 | x4 | x4 | x4 | x4 | x4 | x4 | x4 | x4 | x4 | x4 | x4 | x4 | x4 | %71
 x4 | x4 | x4 | x4 | x4 | x4 | x4 | x4 | x4 | x4 | x4 :|[M:3/4][K:treble] x6 | x6 | x6 | x6 | %86
[K:bass] x6 | x6 | x6 | x6 :: x6 | x6 | x6 | x6 | x6 | x6 |[K:treble] x6 | x6 | x6 | x6 | %100
[K:bass] x6 | x6 | x6 | x6 ::[K:C] x6 |[K:treble] x6 | x6 | x6 | x6 | x6 | x4[K:bass] x2 | x6 :: %112
 x6 | x6 | x6 | x2[K:treble] x4 | x6 | x6 | x6 | x6 |[K:bass] x6 |[K:treble] x6 | x6 | x6 | x6 | %125
 x6 | x4[K:bass] x2 | x6 :|[K:G][M:3/8] x | x3 | x3 | x3 | x3 | x3 | x3 | x3 | x2 :| x | x3 | x3 | %140
 x3 | x3 | x3 | x3 | x3 | x3 | x3 | x3 | x3 | x3 | x3 | x3 | x3 | x2 |:[K:F] x |[K:treble] x3 | %156
 x3 | x3 | x3 |[K:bass] x .G,.G, | x .=F,.F, | x3 | x2 :: x | x3 | x3 | x3 | x3 | x3 | x3 | x3 | %171
 x3 |[K:treble] x3 | x3 | x3 | x3 |[K:bass] x .B,.B, | x .=C,.C, | x3 | x2 :| %180

